src/icons/svg/other.svg

<?xml version="1.0" encoding="UTF-8"?>
<svg width="40px" height="45px" viewBox="0 0 40 45" version="1.1" xmlns="http://www.w3.org/2000/svg"
>
    <path d="M17.9296066,0.554760245 C19.2107705,-0.184920082 20.7892295,-0.184920082 22.0703934,0.554760245 L37.9296066,9.71211016 C39.210738,10.4517717 40,11.8187084 40,13.2980315 L40,31.6106609 C40,33.0899839 39.210738,34.4569207 37.9296066,35.1965822 L22.0703934,44.3539321 C20.7892295,45.0936124 19.2107705,45.0936124 17.9296066,44.3539321 L2.07039339,35.1965822 C0.789262044,34.4569207 0,33.0899839 0,31.6106609 L0,13.2980315 C0,11.8187084 0.789262044,10.4517717 2.07039339,9.71211016 L17.9296066,0.554760245 Z M20,4.14068159 L4.14078673,13.2980315 L4.14078673,31.6106609 L20,40.7680108 L35.8592133,31.6106609 L35.8592133,13.2980315 L20,4.14068159 Z M20,14.1727727 C24.5737868,14.1727727 28.2815735,17.8805594 28.2815735,22.4543462 C28.2815735,27.0281329 24.5737868,30.7359197 20,30.7359197 C15.4262132,30.7359197 11.7184265,27.0281329 11.7184265,22.4543462 C11.7184265,17.8805594 15.4262132,14.1727727 20,14.1727727 Z M20,18.3135594 C18.5206394,18.3135594 17.1536537,19.1027889 16.4139734,20.3839528 C15.6742931,21.6651167 15.6742931,23.2435757 16.4139734,24.5247396 C17.1536537,25.8059035 18.5206394,26.5951329 20,26.5951329 C22.2868933,26.5951329 24.1407866,24.7412395 24.1407866,22.4543462 C24.1407866,20.1674529 22.2868933,18.3135594 20,18.3135594 L20,18.3135594 Z"
          id="形状"></path>
</svg>

<svg width="40" height="45" xmlns="http://www.w3.org/2000/svg"><path d="M17.93.555a4.14 4.14 0 0 1 4.14 0l15.86 9.157A4.14 4.14 0 0 1 40 13.298v18.313a4.14 4.14 0 0 1-2.07 3.586l-15.86 9.157a4.14 4.14 0 0 1-4.14 0L2.07 35.197A4.14 4.14 0 0 1 0 31.61V13.298c0-1.48.79-2.846 2.07-3.586L17.93.555zM20 4.14L4.14 13.298v18.313L20 40.768l15.86-9.157V13.298L20 4.141zm0 10.032a8.282 8.282 0 1 1 0 16.563 8.282 8.282 0 0 1 0-16.563zm0 4.14a4.14 4.14 0 1 0 0 8.282 4.14 4.14 0 0 0 0-8.281z"/></svg>
